; generated by PrusaSlicer 2.9.2 on 2025-07-23 at 18:04:53 UTC


;
;
; 

; external perimeters extrusion width = 0.45mm
; perimeters extrusion width = 0.45mm
; infill extrusion width = 0.45mm
; solid infill extrusion width = 0.45mm
; top infill extrusion width = 0.40mm
; support material extrusion width = 0.35mm
; first layer extrusion width = 0.42mm

; external perimeters extrusion width = 0.45mm
; perimeters extrusion width = 0.45mm
; infill extrusion width = 0.45mm
; solid infill extrusion width = 0.45mm
; top infill extrusion width = 0.40mm
; support material extrusion width = 0.35mm
; first layer extrusion width = 0.42mm

M73 P0 R212

; printing object B 2.0.stl id:0 copy 0
; stop printing object B 2.0.stl id:0 copy 0
; printing object A 2.0.stl id:1 copy 0
; stop printing object A 2.0.stl id:1 copy 0

;TYPE:Custom
M862.3 P "MK3S" ; printer model check
M862.1 P0.4 ; nozzle diameter check
M115 U3.14.1 ; tell printer latest fw version
G90 ; use absolute coordinates
M83 ; extruder relative mode
M104 S215 ; set extruder temp
M140 S60 ; set bed temp
M190 S60 ; wait for bed temp
M109 S215 ; wait for extruder temp
G28 W ; home all without mesh bed level
G80 X76.1471 Y53.4816 W101.707 H106.279 ; mesh bed levelling

G1 Z0.2 F720
G1 Y-3 F1000 ; go outside print area
G92 E0
G1 X60 E9 F1000 ; intro line
G1 X100 E12.5 F1000 ; intro line

G92 E0
M221 S95

; Don't change E values below. Excessive value can damage the printer.

M907 E538 ; set extruder motor current
G21 ; set units to millimeters
G90 ; use absolute coordinates
M83 ; use relative distances for extrusion

M900 K0.05 ; Filament gcode LA 1.5
M900 K30 ; Filament gcode LA 1.0




M107
;LAYER_CHANGE
;Z:0.2
;HEIGHT:0.2
G1 E-1.2 F2400
G1 Z.6 F720
G1 X76.727 Y54.61 F10800
G1 Z.2 F720
G1 E1.2 F2400
M204 S800
;TYPE:Skirt/Brim
;WIDTH:0.42
G1 F1200
G1 X77.759 Y53.808 E.04098
G1 X78.524 Y53.67 E.02437
G1 X174.522 Y53.67 E3.00995
G1 X175.77 Y54.061 E.04101
G1 X176.573 Y55.094 E.04102
G1 X176.71 Y55.822 E.02323
G1 X177.666 Y112.346 E1.77252
G1 X177.666 Y117.383 E.15793
G1 X177.527 Y118.151 E.02447
G1 X162.527 Y158.151 E1.33946
G1 X161.722 Y159.183 E.04104
G1 X160.477 Y159.572 E.0409
G1 X94.477 Y159.572 E2.06938
G1 X93.229 Y159.181 E.04101
G1 X92.428 Y158.151 E.04091
G1 X77.428 Y118.151 E1.33946
G1 X77.289 Y117.42 E.02333
G1 X76.336 Y60.896 E1.77252
G1 X76.336 Y55.859 E.15793
G1 X76.709 Y54.668 E.03913
M204 S1000
;WIPE_START
G1 F8640
G1 X76.727 Y54.61 E-.01603
G1 X77.759 Y53.808 E-.3449
G1 X78.524 Y53.67 E-.20513
M73 P0 R211
G1 X80.926 Y53.67 E-.63394
;WIPE_END
G1 Z.6 F720
; printing object B 2.0.stl id:0 copy 0
G1 X167.211 Y60.072 F10800
G1 Z.2 F720
G1 E1.2 F2400
M204 S800
;TYPE:Perimeter
;WIDTH:0.419999
G1 F1200
G1 X159.303 Y60.072 E.24795
G1 X159.205 Y60.08 E.00308
G1 X158.963 Y60.185 E.00827
G1 X158.781 Y60.42 E.00932
G1 X158.737 Y60.637 E.00694
G1 X158.737 Y100.072 E1.23645
G1 X94.309 Y100.072 E2.02009
G1 X94.3 Y60.535 E1.23965
G1 X94.196 Y60.298 E.00811
G1 X93.927 Y60.102 E.01044
G1 X93.744 Y60.072 E.00581
G1 X79.311 Y60.072 E.45254
G1 X79.311 Y56.646 E.10742
G1 X106.735 Y56.646 E.85986
G1 X106.735 Y84.08 E.86017
G1 X106.744 Y84.178 E.00309
G1 X106.851 Y84.423 E.00838
G1 X107.051 Y84.587 E.00811
G1 X107.301 Y84.646 E.00805
G1 X138.744 Y84.646 E.98587
G1 X138.841 Y84.637 E.00305
G1 X139.085 Y84.531 E.00834
G1 X139.252 Y84.328 E.00824
G1 X139.309 Y84.08 E.00798
G1 X139.309 Y56.646 E.86017
G1 X173.735 Y56.646 E1.0794
G1 X173.735 Y58.359 E.05371
G1 X173.735 Y60.072 E.05371
G1 X167.271 Y60.072 E.20267
M204 S1000
G1 X167.211 Y60.449 F10800
M204 S800
;TYPE:External perimeter
G1 F1200
G1 X159.303 Y60.449 E.24795
G1 X159.19 Y60.486 E.00373
G1 X159.114 Y60.637 E.0053
G1 X159.114 Y100.449 E1.24828
G1 X93.932 Y100.449 E2.04373
G1 X93.932 Y60.637 E1.24828
G1 X93.894 Y60.524 E.00374
G1 X93.744 Y60.449 E.00526
G1 X78.934 Y60.449 E.46436
G1 X78.934 Y56.269 E.13106
G1 X107.112 Y56.269 E.8835
G1 X107.112 Y84.08 E.87199
G1 X107.163 Y84.209 E.00435
G1 X107.301 Y84.269 E.00472
G1 X138.744 Y84.269 E.98587
G1 X138.87 Y84.22 E.00424
G1 X138.932 Y84.08 E.0048
G1 X138.932 Y56.269 E.87199
G1 X174.112 Y56.269 E1.10304
G1 X174.112 Y58.359 E.06553
G1 X174.112 Y60.449 E.06553
G1 X167.271 Y60.449 E.21449
M204 S1000
;WIPE_START
G1 F8640
G1 X167.211 Y60.449 E-.01583
G1 X162.723 Y60.449 E-1.18417
;WIPE_END
G1 Z.6 F720
G1 X172.802 Y56.815 F10800
G1 Z.2 F720
G1 E1.2 F2400
M204 S800
;TYPE:Solid infill
;WIDTH:0.420398
G1 F1200
G1 X173.565 Y57.579 E.03389
M204 S1000
G1 X173.565 Y58.112 F10800
M204 S800
G1 F1200
G1 X172.268 Y56.815 E.05757
M204 S1000
G1 X171.735 Y56.815 F10800
M204 S800
G1 F1200
G1 X173.565 Y58.646 E.08125
M204 S1000
G1 X173.565 Y59.18 F10800
M204 S800
G1 F1200
G1 X171.201 Y56.815 E.10496
M204 S1000
G1 X170.667 Y56.815 F10800
M204 S800
G1 F1200
G1 X173.565 Y59.714 E.12866
M204 S1000
G1 X173.22 Y59.902 F10800
M204 S800
G1 F1200
G1 X170.133 Y56.815 E.13703
M204 S1000
G1 X169.599 Y56.815 F10800
M204 S800
G1 F1200
G1 X172.686 Y59.902 E.13703
M204 S1000
G1 X172.152 Y59.902 F10800
M204 S800
G1 F1200
G1 X169.065 Y56.815 E.13703
M204 S1000
G1 X168.532 Y56.815 F10800
M204 S800
G1 F1200
G1 X171.618 Y59.902 E.13701
M204 S1000
G1 X171.084 Y59.902 F10800
M204 S800
G1 F1200
G1 X167.998 Y56.815 E.13701
M204 S1000
G1 X167.464 Y56.815 F10800
M204 S800
G1 F1200
G1 X170.55 Y59.902 E.13701
M204 S1000
G1 X170.017 Y59.902 F10800
M204 S800
G1 F1200
G1 X166.93 Y56.815 E.13703
M204 S1000
G1 X166.396 Y56.815 F10800
M204 S800
G1 F1200
G1 X169.483 Y59.902 E.13703
M204 S1000
G1 X168.949 Y59.902 F10800
M204 S800
G1 F1200
G1 X165.862 Y56.815 E.13703
M204 S1000
G1 X165.329 Y56.815 F10800
M204 S800
G1 F1200
G1 X168.415 Y59.902 E.13701
M204 S1000
G1 X167.881 Y59.902 F10800
M204 S800
G1 F1200
G1 X164.795 Y56.815 E.13701
M204 S1000
G1 X164.261 Y56.815 F10800
M204 S800
G1 F1200
G1 X167.347 Y59.902 E.13701
M204 S1000
G1 X166.814 Y59.902 F10800
M204 S800
G1 F1200
G1 X163.727 Y56.815 E.13703
M204 S1000
G1 X163.193 Y56.815 F10800
M204 S800
G1 F1200
G1 X166.28 Y59.902 E.13703
M204 S1000
G1 X165.746 Y59.902 F10800
M204 S800
G1 F1200
G1 X162.659 Y56.815 E.13703
M204 S1000
G1 X162.126 Y56.815 F10800
M204 S800
G1 F1200
G1 X165.212 Y59.902 E.13701
M204 S1000
G1 X164.678 Y59.902 F10800
M204 S800
G1 F1200
G1 X161.592 Y56.815 E.13701
M204 S1000
G1 X161.058 Y56.815 F10800
M204 S800
G1 F1200
G1 X164.144 Y59.902 E.13701
M204 S1000
G1 X163.611 Y59.902 F10800
M204 S800
G1 F1200
G1 X160.524 Y56.815 E.13703
M204 S1000
G1 X159.99 Y56.815 F10800
M204 S800
G1 F1200
G1 X163.077 Y59.902 E.13703
M204 S1000
G1 X162.543 Y59.902 F10800
M204 S800
G1 F1200
G1 X159.456 Y56.815 E.13703
M204 S1000
G1 X158.923 Y56.815 F10800
M204 S800
G1 F1200
G1 X162.009 Y59.902 E.13701
M204 S1000
G1 X161.475 Y59.902 F10800
M204 S800
G1 F1200
G1 X158.389 Y56.815 E.13701
M204 S1000
G1 X157.855 Y56.815 F10800
M204 S800
G1 F1200
G1 X160.941 Y59.902 E.13701
M204 S1000
G1 X160.408 Y59.902 F10800
M204 S800
G1 F1200
G1 X157.321 Y56.815 E.13703
M204 S1000
G1 X156.787 Y56.815 F10800
M204 S800
G1 F1200
G1 X159.874 Y59.902 E.13703
M204 S1000
G1 X159.34 Y59.902 F10800
M204 S800
G1 F1200
G1 X156.253 Y56.815 E.13703
M204 S1000
G1 X155.72 Y56.815 F10800
M204 S800
G1 F1200
G1 X158.922 Y60.017 E.14213
M204 S1000
G1 X158.661 Y60.29 F10800
M204 S800
G1 F1200
G1 X155.186 Y56.815 E.15425
M204 S1000
G1 X154.652 Y56.815 F10800
M204 S800
G1 F1200
G1 X158.567 Y60.731 E.1738
M204 S1000
G1 X158.567 Y61.265 F10800
M204 S800
G1 F1200
G1 X154.118 Y56.815 E.19751
M204 S1000
G1 X153.584 Y56.815 F10800
M204 S800
G1 F1200
G1 X158.567 Y61.799 E.22121
M204 S1000
G1 X158.567 Y62.332 F10800
M204 S800
G1 F1200
G1 X153.05 Y56.815 E.24489
M204 S1000
G1 X152.517 Y56.815 F10800
M204 S800
G1 F1200
G1 X158.567 Y62.866 E.26857
M204 S1000
G1 X158.567 Y63.4 F10800
M204 S800
G1 F1200
G1 X151.983 Y56.815 E.29228
M204 S1000
G1 X151.449 Y56.815 F10800
M204 S800
G1 F1200
G1 X158.567 Y63.934 E.31598
M204 S1000
G1 X158.567 Y64.468 F10800
M204 S800
G1 F1200
G1 X150.915 Y56.815 E.33968
M204 S1000
G1 X150.381 Y56.815 F10800
M204 S800
G1 F1200
G1 X158.567 Y65.002 E.36339
M204 S1000
G1 X158.567 Y65.535 F10800
M204 S800
G1 F1200
G1 X149.847 Y56.815 E.38707
M204 S1000
G1 X149.314 Y56.815 F10800
M204 S800
G1 F1200
G1 X158.567 Y66.069 E.41075
M204 S1000
G1 X158.567 Y66.603 F10800
M204 S800
G1 F1200
G1 X148.78 Y56.815 E.43445
M204 S1000
G1 X148.246 Y56.815 F10800
M204 S800
G1 F1200
G1 X158.567 Y67.137 E.45816
M204 S1000
G1 X158.567 Y67.671 F10800
M204 S800
G1 F1200
G1 X147.712 Y56.815 E.48186
M204 S1000
G1 X147.178 Y56.815 F10800
M204 S800
G1 F1200
G1 X158.567 Y68.205 E.50556
M204 S1000
G1 X158.567 Y68.738 F10800
M204 S800
G1 F1200
G1 X146.644 Y56.815 E.52924
M204 S1000
G1 X146.111 Y56.815 F10800
M204 S800
G1 F1200
G1 X158.567 Y69.272 E.55293
M204 S1000
G1 X158.567 Y69.806 F10800
M204 S800
G1 F1200
G1 X145.577 Y56.815 E.57663
M204 S1000
G1 X145.043 Y56.815 F10800
M204 S800
G1 F1200
G1 X158.567 Y70.34 E.60033
M204 S1000
G1 X158.567 Y70.874 F10800
M204 S800
G1 F1200
G1 X144.509 Y56.815 E.62404
M204 S1000
G1 X143.975 Y56.815 F10800
M204 S800
G1 F1200
G1 X158.567 Y71.408 E.64774
M204 S1000
G1 X158.567 Y71.941 F10800
M204 S800
G1 F1200
G1 X143.441 Y56.815 E.67142
M204 S1000
G1 X142.908 Y56.815 F10800
M204 S800
G1 F1200
G1 X158.567 Y72.475 E.6951
M204 S1000
G1 X158.567 Y73.009 F10800
M204 S800
G1 F1200
G1 X142.374 Y56.815 E.71881
M204 S1000
G1 X141.84 Y56.815 F10800
M73 P0 R210
M204 S800
G1 F1200
G1 X158.567 Y73.543 E.74251
M204 S1000
G1 X158.567 Y74.077 F10800
M204 S800
G1 F1200
G1 X141.306 Y56.815 E.76621
M204 S1000
G1 X140.772 Y56.815 F10800
M204 S800
G1 F1200
G1 X158.567 Y74.611 E.78992
M204 S1000
G1 X158.567 Y75.144 F10800
M204 S800
G1 F1200
G1 X140.238 Y56.815 E.8136
M204 S1000
G1 X139.705 Y56.815 F10800
M204 S800
G1 F1200
G1 X158.567 Y75.678 E.83728
M204 S1000
G1 X158.567 Y76.212 F10800
M204 S800
G1 F1200
G1 X139.479 Y57.124 E.84729
M204 S1000
G1 X139.479 Y57.657 F10800
M204 S800
G1 F1200
G1 X158.567 Y76.746 E.84731
M204 S1000
G1 X158.567 Y77.28 F10800
M204 S800
G1 F1200
G1 X139.479 Y58.191 E.84731
M204 S1000
G1 X139.479 Y58.725 F10800
M204 S800
G1 F1200
G1 X158.567 Y77.814 E.84731
M204 S1000
G1 X158.567 Y78.347 F10800
M204 S800
G1 F1200
G1 X139.479 Y59.259 E.84729
M204 S1000
G1 X139.479 Y59.793 F10800
M204 S800
G1 F1200
G1 X158.567 Y78.881 E.84729
M204 S1000
G1 X158.567 Y79.415 F10800
M204 S800
G1 F1200
G1 X139.479 Y60.327 E.84729
M204 S1000
G1 X139.479 Y60.86 F10800
M204 S800
G1 F1200
G1 X158.567 Y79.949 E.84731
M204 S1000
G1 X158.567 Y80.483 F10800
M204 S800
G1 F1200
G1 X139.479 Y61.394 E.84731
M204 S1000
G1 X139.479 Y61.928 F10800
M204 S800
G1 F1200
G1 X158.567 Y81.017 E.84731
M204 S1000
G1 X158.567 Y81.55 F10800
M204 S800
G1 F1200
G1 X139.479 Y62.462 E.84729
M204 S1000
G1 X139.479 Y62.996 F10800
M204 S800
G1 F1200
G1 X158.567 Y82.084 E.84729
M204 S1000
G1 X158.567 Y82.618 F10800
M204 S800
G1 F1200
G1 X139.479 Y63.53 E.84729
M204 S1000
G1 X139.479 Y64.063 F10800
M204 S800
G1 F1200
G1 X158.567 Y83.152 E.84731
M204 S1000
G1 X158.567 Y83.686 F10800
M204 S800
G1 F1200
G1 X139.479 Y64.597 E.84731
M204 S1000
G1 X139.479 Y65.131 F10800
M204 S800
G1 F1200
G1 X158.567 Y84.22 E.84731
M204 S1000
G1 X158.567 Y84.753 F10800
M204 S800
G1 F1200
G1 X139.479 Y65.665 E.84729
M204 S1000
G1 X139.479 Y66.199 F10800
M204 S800
G1 F1200
G1 X158.567 Y85.287 E.84729
M204 S1000
G1 X158.567 Y85.821 F10800
M204 S800
G1 F1200
G1 X139.479 Y66.733 E.84729
M204 S1000
G1 X139.479 Y67.266 F10800
M204 S800
G1 F1200
G1 X158.567 Y86.355 E.84731
M204 S1000
G1 X158.567 Y86.889 F10800
M204 S800
G1 F1200
G1 X139.479 Y67.8 E.84731
M204 S1000
G1 X139.479 Y68.334 F10800
M204 S800
G1 F1200
G1 X158.567 Y87.423 E.84731
M204 S1000
G1 X158.567 Y87.956 F10800
M204 S800
G1 F1200
G1 X139.479 Y68.868 E.84729
M204 S1000
G1 X139.479 Y69.402 F10800
M204 S800
G1 F1200
G1 X158.567 Y88.49 E.84729
M204 S1000
G1 X158.567 Y89.024 F10800
M204 S800
G1 F1200
G1 X139.479 Y69.936 E.84729
M204 S1000
G1 X139.479 Y70.469 F10800
M73 P1 R210
M204 S800
G1 F1200
G1 X158.567 Y89.558 E.84731
M204 S1000
G1 X158.567 Y90.092 F10800
M204 S800
G1 F1200
G1 X139.479 Y71.003 E.84731
M204 S1000
G1 X139.479 Y71.537 F10800
M204 S800
G1 F1200
G1 X158.567 Y90.626 E.84731
M204 S1000
G1 X158.567 Y91.159 F10800
M204 S800
G1 F1200
G1 X139.479 Y72.071 E.84729
M204 S1000
G1 X139.479 Y72.605 F10800
M204 S800
G1 F1200
G1 X158.567 Y91.693 E.84729
M204 S1000
G1 X158.567 Y92.227 F10800
M204 S800
G1 F1200
G1 X139.479 Y73.139 E.84729
M204 S1000
G1 X139.479 Y73.672 F10800
M204 S800
G1 F1200
G1 X158.567 Y92.761 E.84731
M204 S1000
G1 X158.567 Y93.295 F10800
M204 S800
G1 F1200
G1 X139.479 Y74.206 E.84731
M204 S1000
G1 X139.479 Y74.74 F10800
M204 S800
G1 F1200
G1 X158.567 Y93.829 E.84731
M204 S1000
G1 X158.567 Y94.362 F10800
M204 S800
G1 F1200
G1 X139.479 Y75.274 E.84729
M204 S1000
G1 X139.479 Y75.808 F10800
M204 S800
G1 F1200
G1 X158.567 Y94.896 E.84729
M204 S1000
G1 X158.567 Y95.43 F10800
M204 S800
G1 F1200
G1 X139.479 Y76.342 E.84729
M204 S1000
G1 X139.479 Y76.875 F10800
M204 S800
G1 F1200
G1 X158.567 Y95.964 E.84731
M204 S1000
G1 X158.567 Y96.498 F10800
M204 S800
G1 F1200
G1 X139.479 Y77.409 E.84731
M204 S1000
G1 X139.479 Y77.943 F10800
M73 P1 R209
M204 S800
G1 F1200
G1 X158.567 Y97.032 E.84731
M204 S1000
G1 X158.567 Y97.565 F10800
M204 S800
G1 F1200
G1 X139.479 Y78.477 E.84729
M204 S1000
G1 X139.479 Y79.011 F10800
M204 S800
G1 F1200
G1 X158.567 Y98.099 E.84729
M204 S1000
G1 X158.567 Y98.633 F10800
M204 S800
G1 F1200
G1 X139.479 Y79.545 E.84729
M204 S1000
G1 X139.479 Y80.078 F10800
M204 S800
G1 F1200
G1 X158.567 Y99.167 E.84731
M204 S1000
G1 X158.567 Y99.701 F10800
M204 S800
G1 F1200
G1 X139.479 Y80.612 E.84731
M204 S1000
G1 X139.479 Y81.146 F10800
M204 S800
G1 F1200
G1 X158.235 Y99.902 E.83255
M204 S1000
G1 X157.701 Y99.902 F10800
M204 S800
G1 F1200
G1 X139.479 Y81.68 E.80885
M204 S1000
G1 X139.479 Y82.214 F10800
M204 S800
G1 F1200
G1 X157.167 Y99.902 E.78514
M204 S1000
G1 X156.633 Y99.902 F10800
M204 S800
G1 F1200
G1 X139.479 Y82.748 E.76144
M204 S1000
G1 X139.479 Y83.282 F10800
M204 S800
G1 F1200
G1 X156.099 Y99.902 E.73774
M204 S1000
G1 X155.565 Y99.902 F10800
M204 S800
G1 F1200
G1 X139.479 Y83.815 E.71406
M204 S1000
G1 X139.44 Y84.31 F10800
M204 S800
G1 F1200
G1 X155.032 Y99.902 E.69211
M204 S1000
G1 X154.498 Y99.902 F10800
M204 S800
G1 F1200
G1 X139.224 Y84.628 E.67799
M204 S1000
G1 X138.866 Y84.804 F10800
M204 S800
G1 F1200
G1 X153.964 Y99.902 E.67018
M204 S1000
G1 X153.43 Y99.902 F10800
M204 S800
G1 F1200
G1 X138.344 Y84.815 E.66967
M204 S1000
G1 X137.81 Y84.815 F10800
M204 S800
G1 F1200
G1 X152.896 Y99.902 E.66967
M204 S1000
G1 X152.362 Y99.902 F10800
M204 S800
G1 F1200
G1 X137.276 Y84.815 E.66967
M204 S1000
G1 X136.742 Y84.815 F10800
M204 S800
G1 F1200
G1 X151.829 Y99.902 E.66969
M204 S1000
G1 X151.295 Y99.902 F10800
M204 S800
G1 F1200
G1 X136.208 Y84.815 E.66969
M204 S1000
G1 X135.675 Y84.815 F10800
M204 S800
G1 F1200
G1 X150.761 Y99.902 E.66967
M204 S1000
G1 X150.227 Y99.902 F10800
M204 S800
G1 F1200
G1 X135.141 Y84.815 E.66967
M204 S1000
G1 X134.607 Y84.815 F10800
M204 S800
G1 F1200
G1 X149.693 Y99.902 E.66967
M204 S1000
G1 X149.159 Y99.902 F10800
M204 S800
G1 F1200
G1 X134.073 Y84.815 E.66967
M204 S1000
G1 X133.539 Y84.815 F10800
M204 S800
G1 F1200
G1 X148.626 Y99.902 E.66969
M204 S1000
G1 X148.092 Y99.902 F10800
M204 S800
G1 F1200
G1 X133.005 Y84.815 E.66969
M204 S1000
G1 X132.472 Y84.815 F10800
M204 S800
G1 F1200
G1 X147.558 Y99.902 E.66967
M204 S1000
G1 X147.024 Y99.902 F10800
M204 S800
G1 F1200
G1 X131.938 Y84.815 E.66967
M204 S1000
G1 X131.404 Y84.815 F10800
M204 S800
G1 F1200
G1 X146.49 Y99.902 E.66967
M204 S1000
G1 X145.956 Y99.902 F10800
M204 S800
G1 F1200
G1 X130.87 Y84.815 E.66967
M204 S1000
G1 X130.336 Y84.815 F10800
M204 S800
G1 F1200
G1 X145.423 Y99.902 E.66969
M204 S1000
G1 X144.889 Y99.902 F10800
M204 S800
G1 F1200
G1 X129.802 Y84.815 E.66969
M204 S1000
G1 X129.268 Y84.815 F10800
M204 S800
G1 F1200
G1 X144.355 Y99.902 E.66969
M204 S1000
G1 X143.821 Y99.902 F10800
M204 S800
G1 F1200
G1 X128.735 Y84.815 E.66967
M204 S1000
G1 X128.201 Y84.815 F10800
M204 S800
G1 F1200
