; generated by PrusaSlicer 2.9.2 on 2025-07-22 at 18:20:06 UTC


;
;
; 

; external perimeters extrusion width = 0.45mm
; perimeters extrusion width = 0.45mm
; infill extrusion width = 0.45mm
; solid infill extrusion width = 0.45mm
; top infill extrusion width = 0.40mm
; support material extrusion width = 0.35mm
; first layer extrusion width = 0.42mm

; external perimeters extrusion width = 0.45mm
; perimeters extrusion width = 0.45mm
; infill extrusion width = 0.45mm
; solid infill extrusion width = 0.45mm
; top infill extrusion width = 0.40mm
; support material extrusion width = 0.35mm
; first layer extrusion width = 0.42mm

M73 P0 R140

; printing object Palikka A.stl id:0 copy 0
; stop printing object Palikka A.stl id:0 copy 0
; printing object Palikka B.stl id:1 copy 0
; stop printing object Palikka B.stl id:1 copy 0

;TYPE:Custom
M862.3 P "MK3S" ; printer model check
M862.1 P0.4 ; nozzle diameter check
M115 U3.14.1 ; tell printer latest fw version
G90 ; use absolute coordinates
M83 ; extruder relative mode
M104 S215 ; set extruder temp
M140 S60 ; set bed temp
M190 S60 ; wait for bed temp
M109 S215 ; wait for extruder temp
G28 W ; home all without mesh bed level
G80 X74.6229 Y89.6229 W100.754 H40.7542 ; mesh bed levelling

G1 Z0.2 F720
G1 Y-3 F1000 ; go outside print area
G92 E0
G1 X60 E9 F1000 ; intro line
G1 X100 E12.5 F1000 ; intro line

G92 E0
M221 S95

; Don't change E values below. Excessive value can damage the printer.

M907 E538 ; set extruder motor current
G21 ; set units to millimeters
G90 ; use absolute coordinates
M83 ; use relative distances for extrusion

M900 K0.05 ; Filament gcode LA 1.5
M900 K30 ; Filament gcode LA 1.0




M107
;LAYER_CHANGE
;Z:0.2
;HEIGHT:0.2
G1 E-1.2 F2400
G1 Z.6 F720
G1 X75.202 Y90.752 F10800
G1 Z.2 F720
G1 E1.2 F2400
M204 S800
;TYPE:Skirt/Brim
;WIDTH:0.42
G1 F1200
G1 X76.235 Y89.949 E.04102
G1 X77 Y89.811 E.02437
G1 X173 Y89.811 E3.01001
G1 X174.248 Y90.202 E.04101
G1 X175.051 Y91.235 E.04102
G1 X175.189 Y92 E.02437
G1 X175.189 Y128 E1.12875
G1 X174.798 Y129.248 E.04101
G1 X173.765 Y130.051 E.04102
G1 X173 Y130.189 E.02437
G1 X77 Y130.189 E3.01001
G1 X75.752 Y129.798 E.04101
G1 X74.949 Y128.765 E.04102
G1 X74.811 Y128 E.02437
M73 P0 R139
G1 X74.811 Y92 E1.12875
G1 X75.184 Y90.809 E.03913
M204 S1000
;WIPE_START
G1 F8640
G1 X75.202 Y90.752 E-.01577
G1 X76.235 Y89.949 E-.34527
G1 X77 Y89.811 E-.20513
G1 X79.402 Y89.811 E-.63383
;WIPE_END
G1 Z.6 F720
; printing object Palikka A.stl id:0 copy 0
G1 X167.598 Y118.531 F10800
G1 Z.2 F720
G1 E1.2 F2400
M204 S800
;TYPE:Perimeter
;WIDTH:0.419999
G1 F1200
G1 X167.993 Y119.048 E.0204
G1 X168.276 Y119.714 E.02269
G1 X168.384 Y120.429 E.02267
G1 X168.311 Y121.149 E.02269
G1 X168.062 Y121.827 E.02265
G1 X167.651 Y122.423 E.0227
G1 X167.105 Y122.897 E.02267
G1 X166.491 Y123.206 E.02155
G1 X165.76 Y123.373 E.02351
G1 X165.029 Y123.347 E.02293
G1 X164.336 Y123.14 E.02268
G1 X163.716 Y122.768 E.02267
G1 X163.208 Y122.253 E.02268
G1 X163.125 Y122.138 E.00445
G1 X162.844 Y121.628 E.01826
G1 X162.647 Y120.932 E.02268
G1 X162.629 Y120.209 E.02268
G1 X162.792 Y119.504 E.02269
G1 X163.125 Y118.862 E.02268
G1 X163.607 Y118.323 E.02267
G1 X164.208 Y117.92 E.02269
G1 X164.89 Y117.68 E.02267
G1 X165.574 Y117.619 E.02153
G1 X166.316 Y117.733 E.02354
G1 X166.986 Y118.027 E.02294
G1 X167.554 Y118.474 E.02266
G1 X167.561 Y118.483 E.00036
M204 S1000
G1 X167.328 Y118.784 F10800
M204 S800
;TYPE:External perimeter
G1 F1200
G1 X167.688 Y119.27 E.01896
G1 X167.926 Y119.853 E.01974
G1 X168.01 Y120.476 E.01971
G1 X167.937 Y121.101 E.01973
G1 X167.711 Y121.689 E.01975
G1 X167.346 Y122.201 E.01972
G1 X166.865 Y122.607 E.01974
G1 X166.331 Y122.865 E.01859
G1 X165.684 Y123.003 E.02074
G1 X165.053 Y122.97 E.01981
G1 X164.453 Y122.781 E.01972
G1 X163.918 Y122.449 E.01974
G1 X163.455 Y121.956 E.02121
G1 X163.175 Y121.446 E.01824
G1 X163.012 Y120.838 E.01974
G1 X163.007 Y120.209 E.01972
G1 X163.157 Y119.598 E.01973
G1 X163.455 Y119.044 E.01972
G1 X163.882 Y118.581 E.01975
G1 X164.41 Y118.239 E.01972
G1 X165.006 Y118.039 E.01971
G1 X165.598 Y117.995 E.01861
G1 X166.25 Y118.105 E.02073
G1 X166.825 Y118.368 E.01983
G1 X167.286 Y118.742 E.01861
M204 S1000
;WIPE_START
G1 F8640
G1 X167.328 Y118.784 E-.01567
G1 X167.688 Y119.27 E-.1596
G1 X167.926 Y119.853 E-.16617
G1 X168.01 Y120.476 E-.16589
G1 X167.937 Y121.101 E-.16605
G1 X167.711 Y121.689 E-.16623
G1 X167.346 Y122.201 E-.16593
G1 X166.865 Y122.607 E-.1661
G1 X166.768 Y122.654 E-.02836
;WIPE_END
G1 Z.6 F720
G1 X81.825 Y119.44 F10800
G1 Z.2 F720
G1 E1.2 F2400
M204 S800
;TYPE:Perimeter
G1 F1200
G1 X82.125 Y118.862 E.02042
G1 X82.528 Y118.406 E.01908
G1 X82.716 Y118.232 E.00803
G1 X83.208 Y117.92 E.01827
G1 X83.89 Y117.68 E.02267
G1 X84.574 Y117.619 E.02153
G1 X85.316 Y117.733 E.02354
G1 X85.986 Y118.027 E.02294
G1 X86.554 Y118.474 E.02266
G1 X86.993 Y119.048 E.02266
G1 X87.263 Y119.681 E.02158
G1 X87.383 Y120.421 E.02351
G1 X87.311 Y121.149 E.02294
G1 X87.062 Y121.827 E.02265
G1 X86.651 Y122.423 E.0227
G1 X86.105 Y122.897 E.02267
G1 X85.491 Y123.206 E.02155
G1 X84.76 Y123.373 E.02351
G1 X84.029 Y123.347 E.02293
G1 X83.336 Y123.14 E.02268
G1 X82.716 Y122.768 E.02267
G1 X82.208 Y122.253 E.02268
G1 X81.844 Y121.628 E.02268
G1 X81.647 Y120.932 E.02268
G1 X81.629 Y120.209 E.02268
G1 X81.792 Y119.504 E.02269
G1 X81.797 Y119.494 E.00035
M204 S1000
G1 X82.169 Y119.577 F10800
M204 S800
;TYPE:External perimeter
G1 F1200
G1 X82.455 Y119.044 E.01897
G1 X82.918 Y118.551 E.02121
G1 X83.41 Y118.239 E.01827
G1 X84.006 Y118.039 E.01971
G1 X84.598 Y117.995 E.01861
G1 X85.25 Y118.105 E.02073
G1 X85.825 Y118.368 E.01983
G1 X86.314 Y118.764 E.01973
G1 X86.688 Y119.27 E.01973
G1 X86.912 Y119.819 E.01859
G1 X87.01 Y120.473 E.02073
G1 X86.937 Y121.101 E.01982
G1 X86.711 Y121.689 E.01975
G1 X86.346 Y122.201 E.01972
G1 X85.865 Y122.607 E.01974
G1 X85.331 Y122.865 E.01859
G1 X84.684 Y123.003 E.02074
G1 X84.053 Y122.97 E.01981
G1 X83.453 Y122.781 E.01972
G1 X82.918 Y122.449 E.01974
G1 X82.483 Y121.995 E.01971
G1 X82.175 Y121.446 E.01974
G1 X82.012 Y120.838 E.01974
G1 X82.007 Y120.209 E.01972
G1 X82.149 Y119.633 E.0186
M204 S1000
;WIPE_START
G1 F8640
G1 X82.169 Y119.577 E-.01569
G1 X82.455 Y119.044 E-.15962
G1 X82.918 Y118.551 E-.17848
G1 X83.41 Y118.239 E-.15374
G1 X84.006 Y118.039 E-.1659
G1 X84.598 Y117.995 E-.15665
G1 X85.25 Y118.105 E-.17449
G1 X85.825 Y118.368 E-.16686
G1 X85.909 Y118.436 E-.02857
;WIPE_END
G1 Z.6 F720
G1 X94.392 Y124.618 F10800
G1 Z.2 F720
G1 E1.2 F2400
M204 S800
;TYPE:Perimeter
G1 F1200
G1 X94.512 Y124.721 E.00496
G1 X94.779 Y124.787 E.00862
G1 X155.221 Y124.787 E1.89511
G1 X155.488 Y124.721 E.00862
G1 X155.674 Y124.561 E.00769
G1 X155.764 Y124.38 E.00634
G1 X155.787 Y124.221 E.00504
G1 X155.787 Y113.787 E.32715
G1 X172.213 Y113.787 E.51502
G1 X172.213 Y116.524 E.08582
G1 X172.213 Y127.213 E.33515
G1 X77.787 Y127.213 E2.96066
G1 X77.787 Y113.787 E.42096
G1 X94.213 Y113.787 E.51502
G1 X94.213 Y123.453 E.30307
G1 X94.236 Y124.38 E.02907
G1 X94.326 Y124.561 E.00634
G1 X94.347 Y124.579 E.00087
M204 S1000
G1 X94.676 Y124.359 F10800
M204 S800
;TYPE:External perimeter
G1 F1200
G1 X94.779 Y124.41 E.0036
G1 X155.221 Y124.41 E1.89511
G1 X155.372 Y124.335 E.00529
G1 X155.41 Y124.221 E.00377
G1 X155.41 Y113.41 E.33897
G1 X172.59 Y113.41 E.53867
G1 X172.59 Y116.524 E.09764
G1 X172.59 Y127.59 E.34697
G1 X77.41 Y127.59 E2.9843
G1 X77.41 Y113.41 E.4446
G1 X94.59 Y113.41 E.53867
G1 X94.59 Y124.221 E.33897
G1 X94.626 Y124.329 E.00357
M204 S1000
;WIPE_START
G1 F8640
G1 X94.676 Y124.359 E-.01539
G1 X94.779 Y124.41 E-.03033
G1 X99.153 Y124.41 E-1.15428
;WIPE_END
G1 Z.6 F720
G1 X171.281 Y113.957 F10800
G1 Z.2 F720
G1 E1.2 F2400
M204 S800
;TYPE:Solid infill
;WIDTH:0.420213
G1 F1200
G1 X171.874 Y114.55 E.02631
G1 X171.874 Y115.083 E.01672
G1 X170.917 Y114.126 E.04246
G1 X170.383 Y114.126 E.01675
G1 X171.874 Y115.617 E.06615
G1 X171.874 Y116.151 E.01675
G1 X169.849 Y114.126 E.08984
G1 X169.316 Y114.126 E.01672
G1 X171.874 Y116.684 E.11349
G1 X171.874 Y117.218 E.01675
G1 X168.782 Y114.126 E.13718
G1 X168.249 Y114.126 E.01672
G1 X171.874 Y117.751 E.16083
G1 X171.874 Y118.285 E.01675
G1 X167.715 Y114.126 E.18452
G1 X167.182 Y114.126 E.01672
G1 X171.874 Y118.818 E.20817
G1 X171.874 Y119.352 E.01675
G1 X166.648 Y114.126 E.23186
G1 X166.114 Y114.126 E.01675
G1 X171.874 Y119.886 E.25555
G1 X171.874 Y120.419 E.01672
G1 X165.581 Y114.126 E.2792
G1 X165.047 Y114.126 E.01675
G1 X171.874 Y120.953 E.30289
G1 X171.874 Y121.486 E.01672
G1 X164.514 Y114.126 E.32654
G1 X163.98 Y114.126 E.01675
G1 X171.874 Y122.02 E.35023
G1 X171.874 Y122.553 E.01672
G1 X168.384 Y119.063 E.15484
G1 X168.273 Y118.855 E.0074
G1 X167.825 Y118.26 E.02337
G1 X167.315 Y117.835 E.02083
G1 X167.139 Y117.724 E.00653
G1 X166.959 Y117.639 E.00624
G1 X163.447 Y114.126 E.15584
G1 X162.913 Y114.126 E.01675
G1 X166.145 Y117.359 E.14342
G1 X165.758 Y117.291 E.01233
G1 X165.535 Y117.282 E.007
G1 X162.379 Y114.126 E.14002
G1 X161.846 Y114.126 E.01672
G1 X165.036 Y117.317 E.14155
G1 X164.906 Y117.326 E.00409
G1 X164.606 Y117.42 E.00986
G1 X161.312 Y114.126 E.14614
G1 X160.779 Y114.126 E.01672
G1 X164.202 Y117.55 E.15189
G1 X163.859 Y117.74 E.0123
G1 X160.245 Y114.126 E.16034
G1 X159.712 Y114.126 E.01672
G1 X163.532 Y117.947 E.1695
G1 X163.254 Y118.203 E.01186
G1 X159.178 Y114.126 E.18086
G1 X158.644 Y114.126 E.01675
G1 X162.996 Y118.478 E.19308
G1 X162.776 Y118.792 E.01203
G1 X158.111 Y114.126 E.20699
G1 X157.577 Y114.126 E.01675
G1 X162.587 Y119.136 E.22228
G1 X162.466 Y119.411 E.00943
G1 X162.438 Y119.52 E.00353
G1 X157.044 Y114.126 E.23931
G1 X156.51 Y114.126 E.01675
G1 X162.329 Y119.945 E.25817
G1 X162.29 Y120.199 E.00806
G1 X162.29 Y120.44 E.00756
G1 X156.126 Y114.276 E.27348
G1 X156.126 Y114.81 E.01675
G1 X162.549 Y121.233 E.28497
M204 S1000
;WIPE_START
G1 F8640
G1 X159.334 Y118.017 E-1.2
;WIPE_END
G1 Z.6 F720
G1 X168.431 Y119.645 F10800
G1 Z.2 F720
G1 E1.2 F2400
M204 S800
G1 F1200
G1 X171.874 Y123.087 E.15273
G1 X171.874 Y123.621 E.01675
G1 X168.726 Y120.473 E.13967
G1 X168.675 Y120.956 E.01524
G1 X171.874 Y124.154 E.14191
G1 X171.874 Y124.688 E.01675
G1 X168.584 Y121.398 E.14597
G1 X168.439 Y121.787 E.01302
G1 X171.874 Y125.221 E.15238
G1 X171.874 Y125.755 E.01675
G1 X168.269 Y122.15 E.15994
G1 X168.04 Y122.455 E.01197
G1 X171.874 Y126.288 E.17008
G1 X171.874 Y126.822 E.01675
G1 X167.807 Y122.755 E.18044
G1 X167.516 Y122.998 E.01189
G1 X171.392 Y126.874 E.17197
G1 X170.858 Y126.874 E.01675
G1 X167.213 Y123.229 E.16172
G1 X166.859 Y123.408 E.01244
G1 X170.324 Y126.874 E.15375
G1 X169.791 Y126.874 E.01672
G1 X166.482 Y123.565 E.14681
G1 X166.044 Y123.66 E.01406
G1 X169.257 Y126.874 E.14257
G1 X168.724 Y126.874 E.01672
G1 X165.569 Y123.719 E.13998
G1 X165.001 Y123.685 E.01785
G1 X168.19 Y126.874 E.14149
G1 X167.657 Y126.874 E.01672
G1 X164.253 Y123.47 E.15102
G1 X164.034 Y123.371 E.00754
G1 X163.526 Y123.049 E.01887
G1 X163.366 Y122.917 E.00651
G1 X162.954 Y122.478 E.01889
G1 X162.832 Y122.31 E.00651
G1 X162.527 Y121.744 E.02017
G1 X156.126 Y115.343 E.28399
G1 X156.126 Y115.877 E.01675
G1 X167.123 Y126.874 E.4879
G1 X166.589 Y126.874 E.01675
G1 X156.126 Y116.411 E.46421
G1 X156.126 Y116.944 E.01672
G1 X166.056 Y126.874 E.44056
G1 X165.522 Y126.874 E.01675
G1 X156.126 Y117.478 E.41687
G1 X156.126 Y118.011 E.01672
G1 X164.989 Y126.874 E.39322
G1 X164.455 Y126.874 E.01675
G1 X156.126 Y118.545 E.36953
G1 X156.126 Y119.078 E.01672
G1 X163.922 Y126.874 E.34588
G1 X163.388 Y126.874 E.01675
G1 X156.126 Y119.612 E.32219
G1 X156.126 Y120.146 E.01675
G1 X162.854 Y126.874 E.2985
G1 X162.321 Y126.874 E.01672
G1 X156.126 Y120.679 E.27485
G1 X156.126 Y121.213 E.01675
G1 X161.787 Y126.874 E.25116
G1 X161.254 Y126.874 E.01672
G1 X156.126 Y121.746 E.22751
G1 X156.126 Y122.28 E.01675
G1 X160.72 Y126.874 E.20382
G1 X160.187 Y126.874 E.01672
G1 X156.126 Y122.813 E.18017
G1 X156.126 Y123.347 E.01675
G1 X159.653 Y126.874 E.15648
G1 X159.119 Y126.874 E.01675
G1 X156.126 Y123.881 E.13279
G1 X156.126 Y124.232 E.01101
G1 X156.104 Y124.391 E.00504
G1 X158.586 Y126.874 E.11014
G1 X158.052 Y126.874 E.01675
G1 X155.946 Y124.768 E.09344
G1 X155.659 Y125.014 E.01186
G1 X157.519 Y126.874 E.08252
G1 X156.985 Y126.874 E.01675
G1 X155.227 Y125.115 E.07802
G1 X154.693 Y125.115 E.01675
G1 X156.452 Y126.874 E.07804
G1 X155.918 Y126.874 E.01675
G1 X154.16 Y125.115 E.07802
G1 X153.626 Y125.115 E.01675
G1 X155.384 Y126.874 E.07802
G1 X154.851 Y126.874 E.01672
G1 X153.093 Y125.116 E.078
G1 X152.559 Y125.116 E.01675
G1 X154.317 Y126.874 E.078
G1 X153.784 Y126.874 E.01672
G1 X152.026 Y125.116 E.078
G1 X151.492 Y125.116 E.01675
G1 X153.25 Y126.874 E.078
G1 X152.717 Y126.874 E.01672
G1 X150.959 Y125.116 E.078
G1 X150.425 Y125.116 E.01675
G1 X152.183 Y126.874 E.078
G1 X151.649 Y126.874 E.01675
G1 X149.892 Y125.116 E.07797
G1 X149.358 Y125.116 E.01675
G1 X151.116 Y126.874 E.078
G1 X150.582 Y126.874 E.01675
G1 X148.825 Y125.116 E.07797
G1 X148.292 Y125.116 E.01672
G1 X150.049 Y126.874 E.07797
G1 X149.515 Y126.874 E.01675
M73 P0 R138
G1 X147.758 Y125.117 E.07795
G1 X147.225 Y125.117 E.01672
G1 X148.981 Y126.874 E.07793
G1 X148.448 Y126.874 E.01672
G1 X146.691 Y125.117 E.07795
G1 X146.158 Y125.117 E.01672
G1 X147.914 Y126.874 E.07793
G1 X147.381 Y126.874 E.01672
G1 X145.624 Y125.117 E.07795
G1 X145.091 Y125.117 E.01672
G1 X146.847 Y126.874 E.07793
G1 X146.314 Y126.874 E.01672
G1 X144.557 Y125.117 E.07795
G1 X144.024 Y125.117 E.01672
G1 X145.78 Y126.874 E.07793
G1 X145.246 Y126.874 E.01675
G1 X143.49 Y125.117 E.07793
G1 X142.957 Y125.117 E.01672
G1 X144.713 Y126.874 E.07793
G1 X144.179 Y126.874 E.01675
G1 X142.423 Y125.118 E.07791
G1 X141.89 Y125.118 E.01672
G1 X143.646 Y126.874 E.07791
G1 X143.112 Y126.874 E.01675
G1 X141.356 Y125.118 E.07791
G1 X140.823 Y125.118 E.01672
G1 X142.579 Y126.874 E.07791
G1 X142.045 Y126.874 E.01675
G1 X140.289 Y125.118 E.07791
G1 X139.756 Y125.118 E.01672
G1 X141.511 Y126.874 E.07789
G1 X140.978 Y126.874 E.01672
G1 X139.222 Y125.118 E.07791
G1 X138.689 Y125.118 E.01672
G1 X140.444 Y126.874 E.07789
G1 X139.911 Y126.874 E.01672
G1 X138.156 Y125.118 E.07789
G1 X137.622 Y125.118 E.01675
G1 X139.377 Y126.874 E.07789
G1 X138.844 Y126.874 E.01672
G1 X137.089 Y125.119 E.07786
G1 X136.555 Y125.119 E.01675
G1 X138.31 Y126.874 E.07786
G1 X137.776 Y126.874 E.01675
G1 X136.022 Y125.119 E.07784
G1 X135.488 Y125.119 E.01675
G1 X137.243 Y126.874 E.07786
G1 X136.709 Y126.874 E.01675
G1 X134.955 Y125.119 E.07784
G1 X134.421 Y125.119 E.01675
G1 X136.176 Y126.874 E.07786
G1 X135.642 Y126.874 E.01675
G1 X133.888 Y125.119 E.07784
G1 X133.354 Y125.119 E.01675
G1 X135.109 Y126.874 E.07786
G1 X134.575 Y126.874 E.01675
G1 X132.821 Y125.119 E.07784
G1 X132.287 Y125.119 E.01675
G1 X134.041 Y126.874 E.07784
G1 X133.508 Y126.874 E.01672
G1 X131.754 Y125.12 E.07782
G1 X131.22 Y125.12 E.01675
G1 X132.974 Y126.874 E.07782
G1 X132.441 Y126.874 E.01672
M73 P1 R138
G1 X130.687 Y125.12 E.07782
G1 X130.153 Y125.12 E.01675
G1 X131.907 Y126.874 E.07782
G1 X131.374 Y126.874 E.01672
G1 X129.62 Y125.12 E.07782
G1 X129.086 Y125.12 E.01675
G1 X130.84 Y126.874 E.07782
G1 X130.306 Y126.874 E.01675
G1 X128.553 Y125.12 E.0778
G1 X128.02 Y125.12 E.01672
G1 X129.773 Y126.874 E.0778
G1 X129.239 Y126.874 E.01675
G1 X127.486 Y125.12 E.0778
G1 X126.953 Y125.12 E.01672
G1 X128.706 Y126.874 E.0778
G1 X128.172 Y126.874 E.01675
G1 X126.419 Y125.121 E.07777
G1 X125.886 Y125.121 E.01672
G1 X127.639 Y126.874 E.07777
G1 X127.105 Y126.874 E.01675
G1 X125.352 Y125.121 E.07777
G1 X124.819 Y125.121 E.01672
G1 X126.571 Y126.874 E.07775
G1 X126.038 Y126.874 E.01672
G1 X124.285 Y125.121 E.07777
G1 X123.752 Y125.121 E.01672
G1 X125.504 Y126.874 E.07775
G1 X124.971 Y126.874 E.01672
G1 X123.218 Y125.121 E.07777
G1 X122.685 Y125.121 E.01672
G1 X124.437 Y126.874 E.07775
G1 X123.904 Y126.874 E.01672
G1 X122.151 Y125.121 E.07777
G1 X121.618 Y125.121 E.01672
G1 X123.37 Y126.874 E.07775
G1 X122.836 Y126.874 E.01675
G1 X121.084 Y125.122 E.07773
G1 X120.551 Y125.122 E.01672
G1 X122.303 Y126.874 E.07773
G1 X121.769 Y126.874 E.01675
G1 X120.017 Y125.122 E.07773
